images/choose-bg-mobile-2.svg

<svg width="344" height="396" viewBox="0 0 344 396" fill="none" xmlns="http://www.w3.org/2000/svg">
<path d="M344 2H1V394.5H270L344 269V2Z" fill="black" fill-opacity="0.5"/>
<path d="M0 0V396H268.502C269.158 394.999 269.814 393.998 270.471 392.998C301.647 345.46 312.824 317.922 344 270.385V0H0ZM342.031 44.5353C340.718 42.5337 339.077 40.0317 337.765 38.0301V54.0428L342.031 60.5479V63.5503L337.765 57.0452V73.0578L342.031 79.563V269.384C310.526 317.422 299.022 345.46 267.517 393.498H174.954L170.687 386.993H160.186L164.452 393.498H162.483L158.217 386.993H147.715L151.981 393.498H149.684L145.418 386.993H134.916L139.183 393.498H137.214L132.947 386.993H122.446L126.712 393.498H52.1796L47.9133 386.993H37.4118L41.678 393.498H39.3808L35.1146 386.993H24.613L28.8793 393.498H26.582L2.29721 356.469V352.466C3.60991 354.467 5.25077 356.969 6.56347 358.971V342.958L2.29721 336.453V333.45L6.23529 339.455V323.443L1.96904 316.937V38.5305L25.2693 3.00238H169.046L173.313 9.50753H183.814L179.876 3.00238H181.845L186.111 9.50753H196.613L192.347 3.00238H194.644L198.91 9.50753H209.412L205.146 3.00238H207.115L211.381 9.50753H221.882L217.616 3.00238H292.149L296.415 9.50753H306.916L302.65 3.00238H304.619L308.885 9.50753H319.387L315.121 3.00238H318.731L342.031 38.5305V44.5353Z" fill="url(#paint0_linear_2158_183)"/>
<defs>
<linearGradient id="paint0_linear_2158_183" x1="-94.7535" y1="14.3722" x2="238.964" y2="649.18" gradientUnits="userSpaceOnUse">
<stop stop-color="white"/>
<stop offset="0.1685" stop-color="#5E5E5E"/>
<stop offset="0.2637" stop-color="#DEDEDE"/>
<stop offset="0.3956" stop-color="#8E8E8E"/>
<stop offset="0.5421" stop-color="#636363"/>
<stop offset="0.6264" stop-color="#5F5F5F"/>
<stop offset="0.7179" stop-color="#EAEAEA"/>
<stop offset="0.7912" stop-color="white"/>
<stop offset="1" stop-color="#454545"/>
</linearGradient>
</defs>
</svg>

<svg width="344" height="396" fill="none" xmlns="http://www.w3.org/2000/svg"><path d="M344 2H1v392.5h269L344 269V2z" fill="#000" fill-opacity=".5"/><path d="M0 0v396h268.502l1.969-3.002c31.176-47.538 42.353-75.076 73.529-122.613V0H0zm342.031 44.535a24122.79 24122.79 0 01-4.266-6.505v16.013l4.266 6.505v3.002l-4.266-6.505v16.013l4.266 6.505v189.821c-31.505 48.038-43.009 76.076-74.514 124.114h-92.563l-4.267-6.505h-10.501l4.266 6.505h-1.969l-4.266-6.505h-10.502l4.266 6.505h-2.297l-4.266-6.505h-10.502l4.267 6.505h-1.969l-4.267-6.505h-10.501l4.266 6.505H52.18l-4.267-6.505H37.412l4.266 6.505h-2.297l-4.266-6.505H24.613l4.266 6.505h-2.297L2.297 356.469v-4.003l4.266 6.505v-16.013l-4.266-6.505v-3.003l3.938 6.005v-16.012l-4.266-6.506V38.531l23.3-35.529h143.777l4.267 6.506h10.501l-3.938-6.506h1.969l4.266 6.506h10.502l-4.266-6.506h2.297l4.266 6.506h10.502l-4.266-6.506h1.969l4.266 6.506h10.501l-4.266-6.506h74.533l4.266 6.506h10.501l-4.266-6.506h1.969l4.266 6.506h10.502l-4.266-6.506h3.61l23.3 35.529v6.004z" fill="url(#paint0_linear_2158_183)"/><defs><linearGradient id="paint0_linear_2158_183" x1="-94.754" y1="14.372" x2="238.964" y2="649.18" gradientUnits="userSpaceOnUse"><stop stop-color="#fff"/><stop offset=".169" stop-color="#5E5E5E"/><stop offset=".264" stop-color="#DEDEDE"/><stop offset=".396" stop-color="#8E8E8E"/><stop offset=".542" stop-color="#636363"/><stop offset=".626" stop-color="#5F5F5F"/><stop offset=".718" stop-color="#EAEAEA"/><stop offset=".791" stop-color="#fff"/><stop offset="1" stop-color="#454545"/></linearGradient></defs></svg>
